!!!OTL: Christlied der Hirten (297), S. 615
!!!id: T0487
**kern
*clefG2
*k[b-]
*g:
{8g
=1
8g
4b-
8a
8g
4.f
=2yy
8f
=3
4.g
8a
2b-}
=4
{4b-
8a
8g
4.f
8f
=5
4.g
8a
2b-}
=6
4r
=7
{4b-
4.a
8b-
=8
2g
4.a
8f
=9
2g}
=10
{4b-
4cc
=11
2dd}
=12
{4b-
4cc
=13
2dd}
=14
{4dd
8cc
8b-
=15
4cc
8b-
8a
8b-
8a
4f#
=16
1g}
==
*-
!!!minrhy: 8
!!!meters: 4/4 ]  ZZ[6
!!!cut1: Christlied der Hirten (297), S. 615
!!!cut2: Melodie II
!!!reg: Luxemburg
!!!trd: Singendes Volk, Esch-Alzette 1937 posth.
!!!rhy1:   X_XXX_.X  X_.XX__
!!!rhy2: X_XXX_.X  X_.XX__  0_
!!!key: T0487  08  G 4/4 ]  ZZ[6
!!!mod: HEPTATONIK MOLL ?]  AMBITUS[6
!!!kad: 3b3b1551
!!!akz: 3b-7b13b_3b-7b13b_2121_3b5_3b5_543b11_
!!!fot: 'a__a__b__c__c__d__
!!!for: 'a__av_b__bw_bw_c__
!!!fok: 'V__V__\__/__/__\__
!! PHRAS[VORWIEGEND AUFTAKTIG]
!!!fkt: geistliches Lied
!!!bem: Beidweiler, hhh Johann Didier, 4.1.1934
!! THILL, Mathias
!! PR[19] 2K[0] 2G[16] 3K[0] 3G[3] 4A[13] 4Ü[0] 5A[0] 6K[0] 6G[0]
!! 7K[0] 7G[0] 8A[0] MEHR[0] SI[32] ABS[31] SR[16] SP[16]
!! ST[8] 2k[6] 2g[39] 3k[3] 3g[0] 4d[0] 4ü[0] 5d[0] 6k[0] 6g[0]
!! 7k[0] 7g[0] 8d[0] mehr[0] si[48] dm[-16] sr[45] sp[3]
!! 1F[37] 2F[51] 3F[9] 4F[0] LF[0] 2P[3] 3P[0] 4P[0] TRI[0] DF[4] AB[35]
!! TF[0] U3K[0] U3[0] U4[0] U4Ü[0] U5[9] U6K[0] U6[3] U7K[0] U7[3]
!! N1[31] N2K[0] N2[28] N3K[0] N3[13] N4[3] N4Ü[0] N5[9] N6K[0] N6[0]
!!!n7k: 0] N7[0] O1[0] O2K[0] O2[0] O3K[0] O3[0] HÖ[0
